icon-themes/sifr_svg/cmd/sc_connectorcurvecirclestart.svg

<svg viewBox="0 0 16 16" xmlns="http://www.w3.org/2000/svg"><g fill="#555753"><path d="m3 1c-1.6568519-.0000016-2.99999735 1.3431438-3 3 .00000265 1.6568562 1.3431481 3.0000016 3 3 1.2705202-.0009536 2.4026641-.8021391 2.8261719-2 .0596053.0001264.1139666-.0000931.1738281 0 1.5752327.00245 3.2485781-.00276 4.574219 0-2.8906839 2-5.2887133 3.9997894-7.1464846 6.017578-.3797947.3703-.7268078.691633-.7832032 1.361328-.028198.334848.1099246.742802.328125.988282.2182011.245471.4501786.381398.6757813.443359.6898012.189453 1.8426241.205313 3.2382813.189453.6057784-.006915 4.9677252-.002687 6.1132812 0v-2c-1.554256.0025-6.4616693.0066-7.5371094 0 1.5371094-2.2957305 4.5371094-4 7.1171874-6.0097656.382465-.3638081.706344-.6622872.816406-1.2773438.055032-.3075283-.020698-.7184237-.21875-.9960937-.198051-.2776701-.440603-.4258242-.658203-.5117188-.519531-.2050781-1.726932-.2209951-2.9843748-.2050781-.9801766.0124073-2.2541591.0036619-3.5351562 0-.063696-.0001821-.1114884.0001631-.1757812 0-.4232682-1.1971861-1.5544157-1.9982199-2.8242188-2zm0 2c.5522847 0 1 .4477153 1 1s-.4477153 1-1 1-1-.4477153-1-1 .4477153-1 1-1z"/><path d="m3 3c-.5522847 0-1 .4477153-1 1s.4477153 1 1 1 1-.4477153 1-1-.4477153-1-1-1z" opacity=".35"/></g></svg>

<svg xmlns="http://www.w3.org/2000/svg" viewBox="0 0 16 16">
  <path
     style="fill:#555753"
     d="M 3 1 C 1.3431481 0.9999984 2.650958e-06 2.3431438 0 4 C 2.650958e-06 5.6568562 1.3431481 7.0000016 3 7 C 4.2705202 6.9990464 5.4026641 6.1978609 5.8261719 5 C 5.8857772 5.0001264 5.9401385 4.9999069 6 5 C 7.5752327 5.00245 9.2485781 4.99724 10.574219 5 C 7.6835351 7 5.2855057 8.9997894 3.4277344 11.017578 C 3.0479397 11.387878 2.7009266 11.709211 2.6445312 12.378906 C 2.6163332 12.713754 2.7544558 13.121708 2.9726562 13.367188 C 3.1908573 13.612659 3.4228348 13.748586 3.6484375 13.810547 C 4.3382387 14 5.4910616 14.01586 6.8867188 14 C 7.4924972 13.993085 11.854444 13.997313 13 14 L 13 12 C 11.445744 12.0025 6.5383307 12.0066 5.4628906 12 C 7 9.7042695 10 8 12.580078 5.9902344 C 12.962543 5.6264263 13.286422 5.3279472 13.396484 4.7128906 C 13.451516 4.4053623 13.375786 3.9944669 13.177734 3.7167969 C 12.979683 3.4391268 12.737131 3.2909727 12.519531 3.2050781 C 12 3 10.792599 2.984083 9.5351562 3 C 8.5549796 3.0124073 7.2809971 3.0036619 6 3 C 5.936304 2.9998179 5.8885116 3.0001631 5.8242188 3 C 5.4009506 1.8028139 4.2698031 1.0017801 3 1 z M 3 3 C 3.5522847 3 4 3.4477153 4 4 C 4 4.5522847 3.5522847 5 3 5 C 2.4477153 5 2 4.5522847 2 4 C 2 3.4477153 2.4477153 3 3 3 z "
     />
  <path
     style="opacity:0.35;fill:#555753"
     d="M 3,3 C 2.4477153,3 2,3.4477153 2,4 2,4.5522847 2.4477153,5 3,5 3.5522847,5 4,4.5522847 4,4 4,3.4477153 3.5522847,3 3,3 Z"
     />
</svg>
